docs/img/dist/icon-faq-04.svg

<svg width="22" height="22" viewBox="0 0 22 22" fill="none" xmlns="http://www.w3.org/2000/svg">
<path fill-rule="evenodd" clip-rule="evenodd" d="M15.35 0.5H6.65C5.01892 0.5 3.45464 1.14794 2.30129 2.30129C1.14794 3.45464 0.5 5.01892 0.5 6.65V12.35C0.517046 12.8288 0.648503 13.2965 0.883374 13.714C1.11824 14.1316 1.4497 14.4868 1.85 14.75V16.625C1.83993 16.8516 1.87465 17.0779 1.95216 17.2911C2.02967 17.5042 2.14845 17.7 2.30171 17.8672C2.45497 18.0344 2.63969 18.1697 2.84531 18.2654C3.05093 18.3611 3.2734 18.4154 3.5 18.425H4.775V20.675C4.775 21.125 5.225 21.5 5.675 21.5H16.175C16.625 21.5 17.075 21.125 17.075 20.6V18.5H18.35C18.5828 18.5101 18.8152 18.473 19.0332 18.3909C19.2512 18.3087 19.4503 18.1833 19.6185 18.0221C19.7867 17.8609 19.9206 17.6673 20.0119 17.4529C20.1032 17.2386 20.1502 17.008 20.15 16.775V14.75C20.5574 14.4641 20.8872 14.0813 21.1098 13.6361C21.3323 13.191 21.4407 12.6974 21.425 12.2V6.575C21.5 3.275 18.725 0.5 15.35 0.5ZM11 4.475L9.05 2.225H12.95L11 4.475ZM3.5 16.7V15.35H4.85V16.7H3.575H3.5ZM6.65 8.375C6.65 8.13631 6.55518 7.90739 6.3864 7.7386C6.21761 7.56982 5.98869 7.475 5.75 7.475C5.51131 7.475 5.28239 7.56982 5.1136 7.7386C4.94482 7.90739 4.85 8.13631 4.85 8.375V13.625H3.575C2.825 13.625 2.225 13.025 2.225 12.275V6.65C2.21484 6.0661 2.32236 5.48614 2.54114 4.94468C2.75992 4.40323 3.08549 3.91137 3.49843 3.49843C3.91137 3.08549 4.40323 2.75992 4.94468 2.54114C5.48614 2.32236 6.0661 2.21484 6.65 2.225L10.1 6.05V19.775H6.65V8.375ZM18.425 16.625H17.15V15.35H18.425V16.7V16.625ZM19.775 12.275C19.775 13.025 19.175 13.625 18.425 13.625H17.15V8.375C17.15 8.13631 17.0552 7.90739 16.8864 7.7386C16.7176 7.56982 16.4887 7.475 16.25 7.475C16.0113 7.475 15.7824 7.56982 15.6136 7.7386C15.4448 7.90739 15.35 8.13631 15.35 8.375V19.775H11.9V6.05L15.35 2.3C15.9275 2.29004 16.5013 2.3952 17.0377 2.60935C17.5742 2.82349 18.0626 3.14233 18.4745 3.54726C18.8864 3.95219 19.2136 4.4351 19.4369 4.96782C19.6601 5.50053 19.7751 6.07238 19.775 6.65V12.35V12.275Z" fill="#202020"/>
<path fill-rule="evenodd" clip-rule="evenodd" d="M10.1 6.05005H11.9V19.775H10.1V6.05005Z" fill="#D61635"/>
</svg>

<svg width="22" height="22" fill="none" xmlns="http://www.w3.org/2000/svg"><path fill-rule="evenodd" clip-rule="evenodd" d="M15.35.5h-8.7A6.15 6.15 0 00.5 6.65v5.7a3 3 0 001.35 2.4v1.875a1.725 1.725 0 001.65 1.8h1.275v2.25c0 .45.45.825.9.825h10.5c.45 0 .9-.375.9-.9v-2.1h1.275a1.726 1.726 0 001.8-1.725V14.75a3 3 0 001.275-2.55V6.575C21.5 3.275 18.725.5 15.35.5zM11 4.475l-1.95-2.25h3.9L11 4.475zM3.5 16.7v-1.35h1.35v1.35H3.5zm3.15-8.325a.9.9 0 00-1.8 0v5.25H3.575c-.75 0-1.35-.6-1.35-1.35V6.65A4.35 4.35 0 016.65 2.225L10.1 6.05v13.725H6.65v-11.4zm11.775 8.25H17.15V15.35h1.275v1.35-.075zm1.35-4.35c0 .75-.6 1.35-1.35 1.35H17.15v-5.25a.9.9 0 10-1.8 0v11.4H11.9V6.05l3.45-3.75a4.35 4.35 0 014.425 4.35v5.7-.075z" fill="#202020"/><path fill-rule="evenodd" clip-rule="evenodd" d="M10.1 6.05h1.8v13.725h-1.8V6.05z" fill="#D61635"/></svg>
